X:832
T:Peggy Ramsey or Peg.
C:John Malchair's Third Collection of Tunes
F:https://www.vwml.org/record/Malchair/3619/p83
F:www.vwml.org/topics/historic-dance-and-tune-books/Malchair
Z:Eric Conrad Apr 2020
W:Peg \u2014 a Ramsey mentioned by Shakespear in Twelfth Night Act 2d.
M:C|
L:1/4
K:Dmix % (?)
P:A
de fd | dc cd | eG GA | B2 A2 :|
P:B
BG GB | A^F DF | GG GA | B2 A2 |]

